X:154
T:Yule Slog
M:6/8
L:1/8
C:© Paul Gitlitz 1994
R:Jig
B:Giblitz Fancy
N:A walk through the snow during another power outage.
K:G
FE|:"G"DGG GFG|"D"A2G FGA|"G"B2A GAB|"D"ABA FED|!
"G"~G3~G3|"D"A2G FGA|"G"BAG "D"FEF|1"G"GG,2-G,FE:|2"G"G3zBc|!
|:"G"~d3~d3|g2d BdB| "D"cAF DFA|DFA cBA|!
"G"d2Bd2B|g2d BdB|"D"cAF DEF|1"G"G3GBc:|2"G"G3G|]
